X: 33760
T: Rattlin' Roarin' Willie
R: slip jig
M: 9/8
K: Gmajor
|:e2|dcBABG d4G2 Bcd2e2|=f2gfed f2c2A2 c4e2|dcBABG d4G2 Bcd2ef|efgfge g2d2B2 d4ef|
gfefge g2d2B2 d3cB2|c2B2A2 =f2c2A2 cBcdef|g4d2 e4d2 gfefge|dcBcdB c2A2F2 G4:|
|:d2|G2BcdB d2BcdB G2BcdB|=F2ABcA =f2c2A2 c4e2|G2BcdB d2BcdB G2BcdB|g2BcdB d2BcdB d2e2f2|
g2BcdB d2BcdB g2BcdB|c2ABcA =f2c2A2 cBcdef|g4d2 e4d2 gfefge|dcBcdB c2A2F2 G4:|

